X:213
T: NUN SO REIS ICH WEG VON HIER
N: E0791
O: Europa, Mitteleuropa, Deutschland
R: Abschieds - Lied, Liebe
M: 4/4
L: 1/8
K: D
 | D3FA2d2 | B2dBA4
G3AF2D2 | E4D2z2
D3FA2d2 | B2dBA4
G3AF2D2 | E4D2z2
A2A2G2G2 | F2AFE4
A2A2G2G2 | F2AFE4
D3FA2d2 | B2dBA4
G3AF2D2 | E4D2z2

